com.fiatuconnect/capabilities/timetofullcharge.svg

<svg height="960" viewBox="0 0 960 960" width="960" xmlns="http://www.w3.org/2000/svg"><g fill="#000" fill-rule="evenodd"><path d="m267 118c15.463973 0 28 12.536027 28 28v33h13c24.300529 0 44 19.699471 44 44l-.00673 79.343995c55.898634-37.480743 123.149464-59.343995 195.50673-59.343995 194.12809 0 351.5 157.37191 351.5 351.5s-157.37191 351.5-351.5 351.5c-125.612517 0-235.835715-65.889513-297.992938-164.991884l-125.507062-.008116c-24.300529 0-44-19.699471-44-44v-514c0-24.300529 19.699471-44 44-44h13v-33c0-15.463973 12.536027-28 28-28zm280.5 165c-172.0367 0-311.5 139.4633-311.5 311.5s139.4633 311.5 311.5 311.5 311.5-139.4633 311.5-311.5-139.4633-311.5-311.5-311.5z"/><path d="m548.04349 345.500579c137.557539.293199 248.95651 111.673172 248.95651 248.999421 0 137.528679-111.714708 249-249.5 249-136.248681 0-247.26008-109.092017-249.466614-244.888132l-.0294-3.449619c-.089707-11.108942 8.890745-20.162738 20.000055-20.162715l209.995959.000466.00086-209.499541c.000041-10.947085 8.794223-19.83654 19.697618-19.99988z"/></g></svg>

<?xml version="1.0" encoding="UTF-8"?>
<svg width="960px" height="960px" viewBox="0 0 960 960" version="1.1" xmlns="http://www.w3.org/2000/svg" xmlns:xlink="http://www.w3.org/1999/xlink">
    <title>se.cohen.renaultze/capabilities/timetofullcharge</title>
    <g id="se.cohen.renaultze/capabilities/timetofullcharge" stroke="none" stroke-width="1" fill="none" fill-rule="evenodd">
        <path d="M267,118 C282.463973,118 295,130.536027 295,146 L295,179 L308,179 C332.300529,179 352,198.699471 352,223 L351.99327,302.343995 C407.891904,264.863252 475.142734,243 547.5,243 C741.62809,243 899,400.37191 899,594.5 C899,788.62809 741.62809,946 547.5,946 C421.887483,946 311.664285,880.110487 249.507062,781.008116 L124,781 C99.699471,781 80,761.300529 80,737 L80,223 C80,198.699471 99.699471,179 124,179 L137,179 L137,146 C137,130.536027 149.536027,118 165,118 L267,118 Z M547.5,283 C375.4633,283 236,422.4633 236,594.5 C236,766.5367 375.4633,906 547.5,906 C719.5367,906 859,766.5367 859,594.5 C859,422.4633 719.5367,283 547.5,283 Z" id="Combined-Shape" fill="#000000"></path>
        <path d="M548.04349,345.500579 C685.601029,345.793778 797,457.173751 797,594.5 C797,732.028679 685.285292,843.5 547.5,843.5 C411.251319,843.5 300.23992,734.407983 298.033386,598.611868 L298.033386,598.611868 L298.003986,595.162249 C297.914279,584.053307 306.894731,574.999511 318.004041,574.999534 L318.004041,574.999534 L528,575 L528.00086,365.500459 C528.000901,354.553374 536.795083,345.663919 547.698478,345.500579 L547.698478,345.500579 Z" id="Combined-Shape" fill="#000000"></path>
    </g>
</svg>
